X:1
T:Polon\"as #16 fr\aan Sexdrega, V\"asterg\"otland
T:Sl\"angpolska
C:Trad.
Z:Bart Brashers, bart.brashers@nyckelharpa.org, efter Forsmark Tre
M:3/4
L:1/8
Q:1/4=102
K:Ddor
|: vDF EE/F/ D2 | de/f/ gf- ed | v^c>e AG FE | 
   vDF EE/F/ D2 | de/f/ gf- ed | v^c/-d/e/c/ ud2 vD2- :|
|: vab/a/ ga/g/ f2- | fe/f/ gf- ed | v^c>e AG FE  | 
   vDa Dg Df | fe/f/ gf- ed | v^c/-d/e/c/ ud2 vD2- :|
P: Alternatives for 4th measure of B-part:
v[DA,]a [DA,]g [DA,]f || vD/-A/a/-A/ D/-A/g/-A/ D/-A/f || vD a2 g2 f- ||
